src/assets/icons/mobPay.svg

<svg width="24" height="24" viewBox="0 0 24 24" fill="none" xmlns="http://www.w3.org/2000/svg" class="color-blue-gray-80"><path d="M15.75 2C16.9926 2 18 3.00736 18 4.25V19.75C18 20.9926 16.9926 22 15.75 22H8.25C7.00736 22 6 20.9926 6 19.75V4.25C6 3.00736 7.00736 2 8.25 2H15.75ZM15.75 3.5H8.25C7.83579 3.5 7.5 3.83579 7.5 4.25V19.75C7.5 20.1642 7.83579 20.5 8.25 20.5H15.75C16.1642 20.5 16.5 20.1642 16.5 19.75V4.25C16.5 3.83579 16.1642 3.5 15.75 3.5ZM9.49878 17.7545C9.91299 17.7545 10.2488 18.0902 10.2488 18.5045C10.2488 18.9187 9.91299 19.2545 9.49878 19.2545C9.08457 19.2545 8.74878 18.9187 8.74878 18.5045C8.74878 18.0902 9.08457 17.7545 9.49878 17.7545ZM11.9988 17.7545C12.413 17.7545 12.7488 18.0902 12.7488 18.5045C12.7488 18.9187 12.413 19.2545 11.9988 19.2545C11.5846 19.2545 11.2488 18.9187 11.2488 18.5045C11.2488 18.0902 11.5846 17.7545 11.9988 17.7545ZM14.4988 17.7545C14.913 17.7545 15.2488 18.0902 15.2488 18.5045C15.2488 18.9187 14.913 19.2545 14.4988 19.2545C14.0846 19.2545 13.7488 18.9187 13.7488 18.5045C13.7488 18.0902 14.0846 17.7545 14.4988 17.7545Z" fill="currentColor"></path></svg>

<svg xmlns="http://www.w3.org/2000/svg" width="24" height="24" fill="none" class="color-blue-gray-80"><path fill="currentColor" d="M15.75 2A2.25 2.25 0 0 1 18 4.25v15.5A2.25 2.25 0 0 1 15.75 22h-7.5A2.25 2.25 0 0 1 6 19.75V4.25A2.25 2.25 0 0 1 8.25 2h7.5Zm0 1.5h-7.5a.75.75 0 0 0-.75.75v15.5c0 .414.336.75.75.75h7.5a.75.75 0 0 0 .75-.75V4.25a.75.75 0 0 0-.75-.75ZM9.499 17.755a.75.75 0 1 1 0 1.5.75.75 0 0 1 0-1.5Zm2.5 0a.75.75 0 1 1 0 1.5.75.75 0 0 1 0-1.5Zm2.5 0a.75.75 0 1 1 0 1.5.75.75 0 0 1 0-1.5Z"/></svg>
